public/icons/ico-accounting.svg

<svg viewBox="0 0 100 100" xmlns="http://www.w3.org/2000/svg"><path d="M19.224 63.883h8.821V38.091h-8.821v25.792zm45.705-36.225h-8.821v10.671c3.108-.487 5.991-.767 8.821-.839v-9.832zM43.813 63.883h4.727V39.788c1.423-.317 2.777-.595 4.094-.849V24.072h-8.821v39.811zm-12.295 0h8.821V28.262h-8.821v35.621zm21.116-20.541v31.132c11.075 1.953 17.567 1.921 28.142 0V43.342c-10.469-2.552-17.152-2.451-28.142 0zm4.103 3.164c7.7-1.197 12.092-1.119 19.936 0v5.391H56.737v-5.391zm5.289 24.617a81.221 81.221 0 01-5.373-.585v-3.917h5.373v4.502zm0-6.171h-5.373v-4.877h5.373v4.877zm0-6.289h-5.373v-4.877h5.373v4.877zm7.366 12.589c-1.79.082-3.561.084-5.374.002v-4.633h5.374v4.631zm0-6.3h-5.374v-4.877h5.374v4.877zm0-6.289h-5.374v-4.877h5.374v4.877zm7.366 11.857c-1.887.28-3.648.468-5.373.602v-4.501h5.373v3.899zm0-5.568h-5.373v-4.877h5.373v4.877zm0-6.289h-5.373v-4.877h5.373v4.877z" fill="#fff"/></svg>

<?xml version="1.0" ?><!DOCTYPE svg  PUBLIC '-//W3C//DTD SVG 1.1//EN'  'http://www.w3.org/Graphics/SVG/1.1/DTD/svg11.dtd'><svg enable-background="new 0 0 100 100" id="Layer_1" version="1.1" viewBox="0 0 100 100" xml:space="preserve" xmlns="http://www.w3.org/2000/svg" xmlns:xlink="http://www.w3.org/1999/xlink"><g><path d="M19.224,63.883h8.821V38.091h-8.821V63.883z M64.929,27.658h-8.821v10.671   c3.108-0.487,5.991-0.767,8.821-0.839V27.658z M43.813,63.883h4.727V39.788c1.423-0.317,2.777-0.595,4.094-0.849V24.072h-8.821   V63.883z M31.518,63.883h8.821V28.262h-8.821V63.883z M52.634,43.342v31.132c11.075,1.953,17.567,1.921,28.142,0V43.342   C70.307,40.79,63.624,40.891,52.634,43.342z M56.737,46.506c7.7-1.197,12.092-1.119,19.936,0v5.391H56.737V46.506z M62.026,71.123   c-1.711-0.131-3.474-0.313-5.373-0.585v-3.917h5.373V71.123z M62.026,64.952h-5.373v-4.877h5.373V64.952z M62.026,58.663h-5.373   v-4.877h5.373V58.663z M69.392,71.252c-1.79,0.082-3.561,0.084-5.374,0.002v-4.633h5.374V71.252z M69.392,64.952h-5.374v-4.877   h5.374V64.952z M69.392,58.663h-5.374v-4.877h5.374V58.663z M76.758,70.52c-1.887,0.28-3.648,0.468-5.373,0.602v-4.501h5.373V70.52   z M76.758,64.952h-5.373v-4.877h5.373V64.952z M76.758,58.663h-5.373v-4.877h5.373V58.663z" fill="white"/></g></svg>
